X:1
T:S'io vi potessi
T:S'io vi potessi
T:Jacques Arcadelt
T:Source : Il primo libro di madrigali a 3 voci---Venetia---A.Gardano---1559. Editor : André Vierendeels (23/10/14).
T:Notes: Original clefs : C1, C2, C4. Original note values have been halved Editorial accidentals above the staff Square brackets indicate ligatures  
C:Jacques Arcadelt
%%score [ 1 2 3 ]
L:1/8
Q:1/4=90
M:2/2
K:F
V:1 treble nm="Canto" snm="C"
V:2 treble nm="Alto" snm="A"
V:3 treble-8 nm="Tenor" snm="T"
V:1
 z8 | F4 F2 G2 | A2 F2 B4 | A2 F2 c4- | c2 c2 A2 B2 | G2 A4 GF | A2 G3 F F2- | F2 E2 F2 F2 | %8
w: |S'io vi po-|tes- si di-|re Ma- don-|* n'i pen- sier|mie- * * *||* * i voi|
 A2 B2 c4 | A4 z2 c2- |: c2 A2 A2 B2- | B2 G4 A2- | A2 F2 G2 B2 | A2 G3 F F2- |1 F2 E2 F2 c2- :|2 %15
w: piu pie- to-|sa, voi|_ piu pie- to-|* s'et io|_ piu lie- t'an-|dre- * * *|* * i, voi|
 FE/D/ E2 F4- || F8 || z4 C4 | F6 E2 | D2 C2 E3 F | G4 z2 G2 | c2 B2 A2 A2 | G4 G2 G2 | A6 F2 | %24
w: (dre)- * * * i.|_|Che|s'el ti-|mor- m'af- fre- *|na, che|s'el ti- mor l'af-|fre- na et|o- pra'l|
 G2 A2 B4 | A8 | z4 z2 c2 | c2 B2 A4 | G3 A BG c2- |"^-natural" cB/A/ B2 c4 | z2 A4 A2 | A4 G2 F2 | %32
w: bel- de- si-|o|con-|tra- ri- o'ef-|fet- * * * *|* * * * to,|non e|mio il di-|
 G4 A4 | z2 c2 A2 B2 | c2 d2 c4- | c2 BA G2 F2 | G4 F2 F2 | G2 A2 B2 G2 | A4 G2 c2 | B2 B2 A2 A2 | %40
w: fet- to,|ma d'un so-|ver- chi'ar- do-||* re che|fo- ra poc' ar-|do- re s'io|v'os- as- si con-|
 G4 G4 | c2 c2 B2 B2 | A4 z2 A2 | B2 A4 GF | G2 A3 G/F/ G2 | A4 c4 | A2 c2 B2 A2 | G4 A4 | %48
w: tar, s'io|v'os- as- si con-|tar' o-|gni mia _ _|_ pe- * * *|na, ma|voi che nel- la|fron- te|
 z2 c2 B2 A2- | A2 GF G4 | A2 F2 A2 B2 | c6 B2 | A4 G4 | z4 c4 | B2 B2 A4 | z4 F4 | F2 G2 A2 F2 | %57
w: il co- no-|* * * sce-|te, per- che non|pro- ve-|de- te,|et|non las- sar|poi|che'l ti- mor mi|
 B4 A2 c2- |: c2 A2 A2 B2- | B2 G4 A2- | A2 F2 G2 B2 | A2 G3 F F2- |1 F2 E2 F2 c2 :|2 %63
w: sfi- da, che'l|_ mio non po-|* ter dir|_ las- so m'an-|ci- * * *|* * da, che'l|
 FE/D/ E2 F4- || F8 |] %65
w: (ci)- * * * da.|_|
V:2
 C4 C2 B,2 | C2 C2 D4 | C2 F3 E/D/ E2 | F4 z2 C2 | F6 D2 | E2 C2 c4- | c2 d2 B2 d2- | d2 cB A2 A2 | %8
w: S'io vi po-|tes- si di-||re Ma-|don- n'i|pen- sier mie-||* * * i voi|
 F2 G2 A3 G | F2 ED E4 |: z2 F4 D2 | D2 E4 C2- | C2 D4 B,2 | C2 D2 C2 D2 |1 B,3 C D2 C2 :|2 %15
w: piu pie- to- *|* * * sa,|voi piu|pie- to- s'et|_ io piu|lie- t'an- dre- *|* * * i,|
 B,4 C2 D2- || D2 CB, C4 || F4 c4- | c2 B2 A2 G2 | A4 G2 G2 | c6 B2 | A2 G2 F4- | F2 ED E4 | %23
w: (dre)- * *|* * * i.|Che s'el|_ ti- mor m'af-|fre- na, che|s'el ti-|mor m'af- fre-|* * * na|
 z2 E2 F2 D2 | E2 F4 E2 | F2 D2 D2 C2 | F3 G A4 | z2 G2 C2 D2 | E4 D2 C2 | D4 C4 | z2 C4 C2 | %31
w: et o- pra'l|bel de- si-|o con- tra- ri-|o'ef- fet- to,|con- tra- ri-|o'ef- fet- *|* to,|non e|
 F3 E D2 C2 | D2 E2 F2 F2 | D2 E2 F2 G2 | F3 G A4- | A2 GF E2 F2- | F2 E2 F4 | z2 C2 D2 E2 | %38
w: mio _ _ il|di- fet- to, a|d'un so- ver- chi'ar-|do- * *||* * re|che fo- ra|
 F2 D2 E4 | D2 G2 F2 F2 | E4 D4 | C2 F3 E/D/ E2 | F4 z2 F2 |"^-natural" G2 F4 ED | E2 C2 D4 | %45
w: poc' ar- do-|re s'io v'os- as-|si con-|ta- * * * *|re o-|gni mia _ _|_ pe- *|
 E4 z2 F2 | F2 A2 G2 F2 | F2 ED C2 E2 | D2 C2 DE FD | E2 F4 E2 | F2 A2 F2 G2 | A6 G2 | %52
w: na, ma|voi che nel- la|fron- * * te il|co- no- sce- * * *||te, per- che non|pro- ve-|
 F2 ED E2 C2 | E2 D2 EC F2- | FE/D/ E2 F2 C2 | C2 B,2 C2 C2 | D2 D2 C2 F2- | FE/D/ E2 F4 |: %58
w: de- * * te, non|pro- ve- de- * *|* * * * te, et|non las- sar poi|che'l ti- mor mi|_ _ _ sfi- da,|
 z2 F4 D2 | D2 E4 C2- | C2 D4 B,2 | C2 D2 C2 D2 |1 B,3 C D2 C2 :|2 B,4 C2 D2- || D2 CB, C4 |] %65
w: che'l mio|non po- ter|_ dir las-|so m'an- ci- *|* * * da,|(ci)- * *|* * * da.|
V:3
 F4 F2 G2 | A2 F2 B4 | A2 B2 G4 | F8 | z4 z2 G2 | c6 c2 | A2 B2 G4- | G4 F4 | z4 z2 F2 | %9
w: S'io vi po-|tes- si di-||re|Ma-|don- n'i|pen- sier mie-|* i|voi|
 A2 B2 c4 |: F4 z4 | z2 c4 A2 | A2 B4 G2 | A2 B2 A2 B2 |1 G4 F4- :|2 G4 A2 B2- || B2 AG A4 || z8 | %18
w: piu pie- to-|sa,|voi piu|pie- to- s'et|io piu lie- t'an-|dre- i,|(dre)- * *|* * * i.||
 z8 | F4 c4- | c2 B2 A2 G2 | F3 G A2 B2 | c4 c4 | c4 F2 B2- |"^-natural" B2 A2 G4 | F2 f2 f2 e2 | %26
w: |Che s'el|_ ti- mor m'af-|fre- * * *|na et|o- pra'l bel|_ de- si-|o con- tra- r'ef-|
 d4 c4 | F2 G2 A2 F2 | c4 B2 A2 | G4 z2 F2- | F2 F2 F4 | F4 B2 A2 | G4 F4 | z8 | z4 z2 c2 | %35
w: fet- *|to, con- tra- ri-|o'ef- fet- *|to, non|_ e mi-|o il di-|fet- to,||ma|
 A2 B2 c2 d2 | c4 F4 | z8 | z2 F2 G2 A2 | B2 G2 A3 B | c2 c2 B2 B2 | A2 A2 G4 | z4 F4 | %43
w: d'un so- ver- chi'ar-|do- re||che fo- ra|poc' ar- do- *|re s'io v'os- as-|si con- tar|o-|
 _E2 F2 c4- | c4 B4 | A4 z4 | z8 | c4 A2 c2 | B2 A2 G2 F2 | c2 d2 c4 | F4 z4 | z4 z2 G2 | %52
w: gni mia pe-||na,||ma voi che|nel- la fron- t'il|co- no- sce-|te,|per-|
 A2 B2 c4- | c2 B2 A4 | G4 F2 F2 | F2 G2 A2 F2 | B2 B2 A2 B2 | G4 F4- |: F4 z4 | z2 c4 A2 | %60
w: che non pro-|* ve- de-|* te, et|non las- sar poi|che'l ti- mor mi|sfi- da,|_|che'l mio|
 A2 B4 G2 | A2 B2 A2 B2 |1 G4 F4- :|2 G4 A2 B2- || B2 AG F4 |] %65
w: non po- ter|dir las- so m'an-|ci- da,|ci- * *|* * * da.|

